src/lib/packages/icons/src/assets/line/chat-minus.svg

<svg width="24" height="24" viewBox="0 0 24 24" fill="none" xmlns="http://www.w3.org/2000/svg">
<path d="M4.0049 21.749C3.5479 21.749 3.10408 21.569 2.76809 21.233C2.29408 20.76 2.13108 20.073 2.34108 19.441L3.1819 16.94C3.2799 16.633 3.27102 16.325 3.15602 16.082C2.56402 14.809 2.25392 13.399 2.25392 11.999C2.25392 6.62402 6.62697 2.25 12.002 2.25C17.378 2.25 21.751 6.62302 21.751 11.999C21.751 12.413 21.415 12.749 21.001 12.749C20.587 12.749 20.251 12.413 20.251 11.999C20.251 7.45102 16.551 3.75 12.002 3.75C7.45397 3.75 3.75392 7.45002 3.75392 11.999C3.75392 13.182 4.01693 14.373 4.51393 15.443C4.78993 16.024 4.82591 16.723 4.60891 17.406L3.76491 19.917C3.72291 20.042 3.78712 20.131 3.82912 20.173C3.87112 20.215 3.96096 20.279 4.08596 20.237L6.584 19.398C7.278 19.177 7.97896 19.211 8.56496 19.492C9.90696 20.115 11.4611 20.37 12.9121 20.194C13.3101 20.146 13.6971 20.437 13.7461 20.848C13.7961 21.259 13.5041 21.633 13.0921 21.683C11.3731 21.891 9.52902 21.593 7.92702 20.848C7.67902 20.73 7.36902 20.721 7.05202 20.823L4.56301 21.659C4.37801 21.719 4.1899 21.749 4.0049 21.749ZM21.75 18C21.75 17.586 21.414 17.25 21 17.25H16C15.586 17.25 15.25 17.586 15.25 18C15.25 18.414 15.586 18.75 16 18.75H21C21.414 18.75 21.75 18.414 21.75 18Z" fill="currentColor"/>
</svg>

<svg xmlns="http://www.w3.org/2000/svg" width="24" height="24" fill="none"><path fill="currentColor" d="M4.005 21.749c-.457 0-.9-.18-1.237-.516a1.743 1.743 0 0 1-.427-1.792l.84-2.501c.099-.307.09-.615-.025-.858a9.74 9.74 0 0 1-.902-4.083c0-5.375 4.373-9.749 9.748-9.749 5.376 0 9.749 4.373 9.749 9.749a.75.75 0 0 1-1.5 0c0-4.548-3.7-8.249-8.249-8.249-4.548 0-8.248 3.7-8.248 8.249a8.23 8.23 0 0 0 .76 3.444c.276.581.312 1.28.095 1.963l-.844 2.511a.242.242 0 0 0 .064.256.243.243 0 0 0 .257.064l2.498-.839c.694-.221 1.395-.187 1.981.094a8.169 8.169 0 0 0 4.347.702.758.758 0 0 1 .834.654.75.75 0 0 1-.654.835c-1.719.208-3.563-.09-5.165-.835-.248-.118-.558-.127-.875-.025l-2.489.836a1.81 1.81 0 0 1-.558.09ZM21.75 18a.75.75 0 0 0-.75-.75h-5a.75.75 0 0 0 0 1.5h5a.75.75 0 0 0 .75-.75Z"/></svg>
